X: 30328
T: Old Micky McKiernan's
R: reel
M: 4/4
K: Dmajor
|:D2 ED FAAB|d2 fd BAFA|B3A FAdB|AFDE FE E2|
D2 ED FAAB|d2 fd BAFA|B3A FAdB|1 AFEG FD D2:|2 AFEG FDDA||
|:defg afdf|afdf eBBA|defg afdf|abaf e2 dB|
defg afdf|afdf eBBA|B3A FAdB|1 AFEG FD D2:|2 AFEG FDEF||

